icon-themes/sifr_svg/cmd/lc_textdirectionlefttoright.svg

<svg viewBox="0 0 24 24" xmlns="http://www.w3.org/2000/svg"><path d="m4 2v3h8a2 2 0 0 1 2 2v1h-8.5c-2.4852814 0-4.5 2.014719-4.5 4.5 0 2.5 2.0147186 4.5 4.5 4.5h11.5v-7-3a5 5 0 0 0 -5-5zm14 2v1c0 .25689.12983.52846.3125.71875l1.6875 1.28125h-2v2h2l-1.6875 1.28125c-.18267.1903-.3125.46186-.3125.71875v1h.414062.585938c.30945 0 .55232-.0903.75-.28125 1.024166-.71875 2.225838-1.81875 3.25-2.71875v-2.03125l-3.25-2.6875c-.19768-.19095-.44055-.28125-.75-.28125h-.585938zm-12.5 7h8.5v3h-8.5c-.828427 0-1.5-.671573-1.5-1.5s.671573-1.5 1.5-1.5zm12.5 4v1c0 .25689.12983.52846.3125.71875l1.6875 1.28125h-18v2h18l-1.6875 1.28125c-.18267.1903-.3125.46186-.3125.71875v1h.414062.585938c.30945 0 .55232-.0903.75-.28125 1.024166-.71875 2.225838-1.81875 3.25-2.730469v-2.019531l-3.25-2.6875c-.19768-.19095-.44055-.28125-.75-.28125h-.585938z" fill="#555753"/></svg>

<svg xmlns="http://www.w3.org/2000/svg" viewBox="0 0 24 24">
  <path
     style="fill:#555753"
     d="M 4 2 L 4 5 L 12 5 A 2 2 0 0 1 14 7 L 14 8 L 5.5 8 C 3.0147186 8 1 10.014719 1 12.5 C 1 15 3.0147186 17 5.5 17 L 17 17 L 17 10 L 17 7 A 5 5 0 0 0 12 2 L 4 2 z M 18 4 L 18 5 C 18 5.25689 18.12983 5.52846 18.3125 5.71875 L 20 7 L 18 7 L 18 9 L 20 9 L 18.3125 10.28125 C 18.12983 10.47155 18 10.74311 18 11 L 18 12 L 18.414062 12 L 19 12 C 19.30945 12 19.55232 11.9097 19.75 11.71875 C 20.774166 11 21.975838 9.9 23 9 L 23 6.96875 L 19.75 4.28125 C 19.55232 4.0903 19.30945 4 19 4 L 18.414062 4 L 18 4 z M 5.5 11 L 14 11 L 14 14 L 5.5 14 C 4.671573 14 4 13.328427 4 12.5 C 4 11.671573 4.671573 11 5.5 11 z M 18 15 L 18 16 C 18 16.25689 18.12983 16.52846 18.3125 16.71875 L 20 18 L 2 18 L 2 20 L 20 20 L 18.3125 21.28125 C 18.12983 21.47155 18 21.74311 18 22 L 18 23 L 18.414062 23 L 19 23 C 19.30945 23 19.55232 22.9097 19.75 22.71875 C 20.774166 22 21.975838 20.9 23 19.988281 L 23 17.96875 L 19.75 15.28125 C 19.55232 15.0903 19.30945 15 19 15 L 18.414062 15 L 18 15 z "
     />
</svg>
